packages/core/src/svgs/tokens/mono/IQ.svg

<svg width="24" height="24" viewBox="0 0 24 24" fill="none" xmlns="http://www.w3.org/2000/svg">
<path d="M9.87278 2.11874C7.32508 2.72094 5.10177 4.26943 3.65362 6.45026C2.95139 7.49486 2.46085 8.66705 2.20978 9.90045C1.99704 11.0271 1.94654 12.1785 2.05977 13.3194C2.37139 15.8444 3.63714 18.1545 5.59748 19.776C6.64129 20.6573 7.81635 21.3136 7.81635 21.0073C7.81635 20.9636 7.69135 20.8137 7.54134 20.6573C6.51629 19.6573 5.97874 17.8885 6.19126 16.2508C6.47878 14.0632 7.36009 12.6068 9.07893 11.4755C9.4039 11.2568 9.70404 11.0818 9.73525 11.0818C9.86024 11.0818 9.78528 10.8318 9.47274 10.2193C8.93887 9.30964 8.6583 8.27372 8.66016 7.21905C8.66213 5.59979 9.26841 4.03956 10.3603 2.8438C10.6603 2.55003 10.6978 2.48752 10.6978 2.25C10.6978 2.0125 10.6853 2 10.5353 2C10.4353 2 10.1416 2.05625 9.87278 2.11874Z" fill="white"/>
<path d="M15.9735 2.75659C15.9735 2.80658 16.0673 2.97535 16.1797 3.1316C16.7091 3.88167 17.0068 4.77047 17.0361 5.68801C17.0924 6.83807 16.7861 7.83813 16.2235 8.34442C15.8048 8.71944 15.4485 8.73193 14.9297 8.40067C14.5671 8.16315 14.5234 7.98814 14.7672 7.67562C15.2208 7.02611 15.455 6.24873 15.4361 5.45675C15.4361 4.57544 15.2672 4.08166 14.811 3.65664C14.6017 3.43849 14.3366 3.28223 14.0443 3.20505C13.752 3.12786 13.4443 3.13273 13.1547 3.21911C12.4796 3.37536 11.8421 4.11292 11.4983 5.14422C11.3233 5.67551 11.1733 6.58806 11.1733 7.11935C11.1795 8.1194 11.4733 9.29448 11.9045 10.0133C12.2296 10.5191 12.6301 10.9722 13.0921 11.3571C13.2171 11.4572 13.336 11.5571 13.336 11.5759C13.336 11.6008 13.2108 11.6634 13.0546 11.7258C11.9045 12.1572 10.742 13.4572 10.2295 14.8885C9.91902 15.6883 9.78062 16.5444 9.8232 17.4012C9.86696 18.4513 10.0545 18.945 10.642 19.5889C11.1046 20.1014 11.9796 20.3389 13.0297 20.2326C14.2422 20.1076 15.1734 19.6701 15.9672 18.8325C16.3173 18.4576 16.3861 18.4138 16.4548 18.4951C16.5173 18.57 16.5048 18.6263 16.3798 18.8451C15.586 20.2138 14.111 21.3827 12.7421 21.7265C12.4421 21.8014 12.3171 21.864 12.3171 21.9264C12.3171 22.1452 14.1796 21.8452 15.3109 21.4389C16.7568 20.9098 18.0659 20.0637 19.1421 18.9626C20.2182 17.8617 21.0342 16.5336 21.5301 15.0761C21.9239 13.876 21.9927 13.4009 21.999 11.9071C21.999 10.7446 21.9864 10.4695 21.8677 9.88207C21.567 8.41337 20.947 7.02886 20.0515 5.82663C19.1561 4.6244 18.0071 3.63388 16.6861 2.92534C16.2111 2.65658 15.9735 2.60032 15.9735 2.75659Z" fill="white"/>
</svg>

<svg xmlns="http://www.w3.org/2000/svg" width="24" height="24" fill="none" viewBox="0 0 24 24">
    <path fill="#fff" d="M9.873 2.119a10.3 10.3 0 0 0-6.22 4.331A9.6 9.6 0 0 0 2.21 9.9a12 12 0 0 0-.15 3.42 9.96 9.96 0 0 0 3.537 6.456c1.044.881 2.22 1.538 2.22 1.231 0-.043-.126-.193-.276-.35-1.025-1-1.562-2.768-1.35-4.406.288-2.188 1.17-3.644 2.888-4.776.325-.218.625-.393.656-.393.125 0 .05-.25-.262-.863a5.9 5.9 0 0 1-.813-3 6.5 6.5 0 0 1 1.7-4.375c.3-.294.338-.356.338-.594 0-.237-.013-.25-.163-.25-.1 0-.393.056-.662.119m6.101.638c0 .05.093.218.206.375.53.75.827 1.638.856 2.556.056 1.15-.25 2.15-.812 2.656-.42.375-.776.388-1.294.057-.363-.238-.407-.413-.163-.725a3.72 3.72 0 0 0 .67-2.22c0-.88-.17-1.374-.626-1.8a1.64 1.64 0 0 0-1.656-.437c-.675.156-1.313.894-1.657 1.925-.175.532-.325 1.444-.325 1.975.007 1 .3 2.175.732 2.894.325.506.725.96 1.187 1.344.125.1.244.2.244.219 0 .025-.125.087-.281.15-1.15.431-2.313 1.731-2.825 3.162-.311.8-.45 1.656-.407 2.513.044 1.05.232 1.544.819 2.188.463.512 1.338.75 2.388.644 1.212-.125 2.143-.563 2.937-1.4.35-.375.42-.42.488-.338.062.075.05.131-.075.35-.794 1.369-2.269 2.538-3.638 2.882-.3.074-.425.137-.425.2 0 .218 1.863-.082 2.994-.488a10.31 10.31 0 0 0 6.22-6.363c.393-1.2.462-1.675.468-3.169 0-1.162-.013-1.437-.131-2.025a10.22 10.22 0 0 0-5.182-6.957q-.713-.403-.713-.168"/>
</svg>
